X: 186
T:Merrily Kiss the Quaker's Wife
T:Merrily Dance the Quaker
R:slide
M:12/8
L:1/8
K:G
%%text Play whole tune at end in G
|:D|GAB D2B c2A BGE|GAB DEG ~A3 A2D|\
GAB D2B c2A BGE|GAB D2E G3 G2:|
|:c|BGG AGG BGG AGE|GAB DEG A3 AGA|\
BGG AGG BGG AGE|GAB D2E G3 G2:|
|:d|~g3 aga bge dBd|~g3 gab ~a3 aba|\
gbg faf ege dBA|GAB D2E G3 G2:|

